X: 3741
T: Bird's Call, The
R: jig
M: 6/8
K: Amajor
F2c cAF|ABc e^dc|B2E EFG|BeB GFE|
F2c cAF|ABc e^dc|1 BcB EFG|AFF F2E:|2 Bcd BAG|AFF F2E||
A2c ecA|faf ecA|B2^d fdB|agf ecB|
A2c ecA|fga c2B|ABc ecB|AFF FGE|
A2c ecA|faf ecA|B2^d fdB|agf ecB|
cfg agf|eae cBA|Bcd GAB|AFF F2E||

